Obsidian-SemiLight/actions/16s/sqrt.svg

<svg height="16" width="16" xmlns="http://www.w3.org/2000/svg"><g fill="#4d4d4d" transform="translate(-421.71429 -531.79074)"><path d="m432.71429 537.79074c-1.662 0-3 1.338-3 3s1.338 3 3 3c.7733 0 1.46912-.30407 2-.78125v.78125h1v-3-3h-1v.78125c-.53088-.47718-1.2267-.78125-2-.78125zm0 1c1.108 0 2 .892 2 2s-.892 2-2 2-2-.892-2-2 .892-2 2-2z"/><path d="m7.65625 3-.125.34375-2.625 7.46875-1.46875-2.5625-.15625-.25h-.28125-1v1h.71875l1.84375 3.25.53125.9375.375-1.03125 2.875-8.15625h5.65625v-1h-6z" transform="translate(421.71429 531.79074)"/></g></svg>

<?xml version="1.0" encoding="UTF-8" standalone="no"?>
<!-- Created with Inkscape (http://www.inkscape.org/) -->

<svg
   xmlns:dc="http://purl.org/dc/elements/1.1/"
   xmlns:cc="http://creativecommons.org/ns#"
   xmlns:rdf="http://www.w3.org/1999/02/22-rdf-syntax-ns#"
   xmlns:svg="http://www.w3.org/2000/svg"
   xmlns="http://www.w3.org/2000/svg"
   xmlns:sodipodi="http://sodipodi.sourceforge.net/DTD/sodipodi-0.dtd"
   xmlns:inkscape="http://www.inkscape.org/namespaces/inkscape"
   width="16"
   height="16"
   id="svg3049"
   version="1.1"
   inkscape:version="0.48.4 r9939"
   sodipodi:docname="sc_insertobjectchart.svg"
   inkscape:export-filename="/home/uri/.kde/share/icons/NITRUX-KDE/16x16/actions/view-right-new.png"
   inkscape:export-xdpi="30"
   inkscape:export-ydpi="30">
  <defs
     id="defs3051" />
  <sodipodi:namedview
     id="base"
     pagecolor="#ffffff"
     bordercolor="#666666"
     borderopacity="1.0"
     inkscape:pageopacity="0.0"
     inkscape:pageshadow="2"
     inkscape:zoom="34.5228"
     inkscape:cx="7.4055742"
     inkscape:cy="4.6309166"
     inkscape:document-units="px"
     inkscape:current-layer="layer1"
     showgrid="true"
     fit-margin-top="0"
     fit-margin-left="0"
     fit-margin-right="0"
     fit-margin-bottom="0"
     inkscape:window-width="1868"
     inkscape:window-height="1060"
     inkscape:window-x="50"
     inkscape:window-y="-3"
     inkscape:window-maximized="1"
     inkscape:showpageshadow="false"
     borderlayer="true"
     inkscape:snap-bbox="true"
     inkscape:snap-global="true">
    <inkscape:grid
       type="xygrid"
       id="grid4085" />
    <sodipodi:guide
       position="2.0000044,14.00003"
       orientation="12,0"
       id="guide4075" />
    <sodipodi:guide
       position="2.0000044,2.0000296"
       orientation="0,12"
       id="guide4077" />
    <sodipodi:guide
       position="14.000004,2.0000296"
       orientation="-12,0"
       id="guide4079" />
    <sodipodi:guide
       position="14.000004,14.00003"
       orientation="0,-12"
       id="guide4081" />
  </sodipodi:namedview>
  <metadata
     id="metadata3054">
    <rdf:RDF>
      <cc:Work
         rdf:about="">
        <dc:format>image/svg+xml</dc:format>
        <dc:type
           rdf:resource="http://purl.org/dc/dcmitype/StillImage" />
        <dc:title></dc:title>
      </cc:Work>
    </rdf:RDF>
  </metadata>
  <g
     inkscape:label="Capa 1"
     inkscape:groupmode="layer"
     id="layer1"
     transform="translate(-421.71429,-531.79074)">
    <rect
       style="fill:#4d4d4d;fill-opacity:1;stroke:none"
       id="rect4035"
       width="0"
       height="10.999983"
       x="404.71429"
       y="534.79071" />
    <rect
       style="fill:#4d4d4d;fill-opacity:1;stroke:none"
       id="rect4035-5"
       width="0"
       height="10.999983"
       x="422.75507"
       y="532.73938" />
    <path
       style="fill:#4d4d4d;fill-opacity:1;stroke:none"
       d="m 432.71429,537.79074 c -1.662,0 -3,1.338 -3,3 0,1.662 1.338,3 3,3 0.7733,0 1.46912,-0.30407 2,-0.78125 l 0,0.78125 1,0 0,-3 0,-3 -1,0 0,0.78125 c -0.53088,-0.47718 -1.2267,-0.78125 -2,-0.78125 z m 0,1 c 1.108,0 2,0.892 2,2 0,1.108 -0.892,2 -2,2 -1.108,0 -2,-0.892 -2,-2 0,-1.108 0.892,-2 2,-2 z"
       id="rect4151"
       inkscape:connector-curvature="0" />
    <path
       style="font-size:medium;font-style:normal;font-variant:normal;font-weight:normal;font-stretch:normal;text-indent:0;text-align:start;text-decoration:none;line-height:normal;letter-spacing:normal;word-spacing:normal;text-transform:none;direction:ltr;block-progression:tb;writing-mode:lr-tb;text-anchor:start;baseline-shift:baseline;color:#000000;fill:#4d4d4d;fill-opacity:1;stroke:none;stroke-width:1px;marker:none;visibility:visible;display:inline;overflow:visible;enable-background:accumulate;font-family:Sans;-inkscape-font-specification:Sans"
       d="M 7.65625 3 L 7.53125 3.34375 L 4.90625 10.8125 L 3.4375 8.25 L 3.28125 8 L 3 8 L 2 8 L 2 9 L 2.71875 9 L 4.5625 12.25 L 5.09375 13.1875 L 5.46875 12.15625 L 8.34375 4 L 14 4 L 14 3 L 8 3 L 7.65625 3 z "
       transform="translate(421.71429,531.79074)"
       id="path4271" />
  </g>
</svg>
